src/helpers/heroicons/solid/chevron-up-down.svg

<svg width="24" height="24" viewBox="0 0 24 24" fill="none" xmlns="http://www.w3.org/2000/svg">
<path fill-rule="evenodd" clip-rule="evenodd" d="M11.4697 4.71967C11.7626 4.42678 12.2374 4.42678 12.5303 4.71967L16.2803 8.46967C16.5732 8.76256 16.5732 9.23744 16.2803 9.53033C15.9874 9.82322 15.5126 9.82322 15.2197 9.53033L12 6.31066L8.78033 9.53033C8.48744 9.82322 8.01256 9.82322 7.71967 9.53033C7.42678 9.23744 7.42678 8.76256 7.71967 8.46967L11.4697 4.71967ZM7.71967 14.4697C8.01256 14.1768 8.48744 14.1768 8.78033 14.4697L12 17.6893L15.2197 14.4697C15.5126 14.1768 15.9874 14.1768 16.2803 14.4697C16.5732 14.7626 16.5732 15.2374 16.2803 15.5303L12.5303 19.2803C12.2374 19.5732 11.7626 19.5732 11.4697 19.2803L7.71967 15.5303C7.42678 15.2374 7.42678 14.7626 7.71967 14.4697Z" />
</svg>

<svg xmlns="http://www.w3.org/2000/svg" viewBox="0 0 24 24" fill="currentColor" aria-hidden="true" data-slot="icon">
  <path fill-rule="evenodd" d="M11.47 4.72a.75.75 0 0 1 1.06 0l3.75 3.75a.75.75 0 0 1-1.06 1.06L12 6.31 8.78 9.53a.75.75 0 0 1-1.06-1.06l3.75-3.75Zm-3.75 9.75a.75.75 0 0 1 1.06 0L12 17.69l3.22-3.22a.75.75 0 1 1 1.06 1.06l-3.75 3.75a.75.75 0 0 1-1.06 0l-3.75-3.75a.75.75 0 0 1 0-1.06Z" clip-rule="evenodd"/>
</svg>
